svgs/familylink.svg

<svg xmlns="http://www.w3.org/2000/svg" viewBox="0 0 192 192"><path d="m145.205 92.782 13.422-16.949c.947-1.195 1.382-2.659 1.226-4.12-.156-1.461-.894-2.824-2.077-3.835l-57.134-48.857c-1.888-1.614-4.396-2.515-7.001-2.515-2.605 0-5.113.901-7.001 2.515L29.503 67.876c-1.183 1.012-1.92 2.374-2.076 3.835-.157 1.461.279 2.925 1.226 4.121l56.709 71.612c1.258 1.588 3.048 2.773 5.107 3.381 2.06.609 4.282.609 6.342 0 2.059-.608 3.849-1.793 5.107-3.381l7.8-9.852" fill="none" stroke="#000" stroke-width="8" stroke-linecap="round" stroke-linejoin="round"/><path d="m27.52 73.34 66.12-5.427 66.12 5.427M55.598 109.86l38.042-2.724 15.471 1.109" fill="none" stroke="#000" stroke-width="8" stroke-linecap="round" stroke-linejoin="round"/><path d="m174.256 117.621-33.901-28.988c-1.12-.958-2.609-1.493-4.154-1.493-1.546 0-3.034.535-4.155 1.493l-33.9 28.988c-.702.6-1.14 1.408-1.232 2.275a3.35 3.35 0 0 0 .727 2.445l33.648 42.491c.747.942 1.809 1.646 3.031 2.007a6.67 6.67 0 0 0 3.762 0c1.222-.361 2.284-1.065 3.03-2.007l33.648-42.491c.562-.709.82-1.578.728-2.445-.093-.867-.531-1.675-1.232-2.275Z" fill="none" stroke="#000" stroke-width="8" stroke-linecap="round" stroke-linejoin="round"/><path d="m96.971 120.863 39.229-3.221 39.234 3.221m-61.805 21.668 22.571-1.614 22.572 1.614M141.112 164.832c-6.051 5.519-13.837 9.242-22.307 10.668l.952-6.323-6.127-5.214a54.282 54.282 0 0 0 13.741-4.077m-25.453-12.442c-1.901 2.4-7.523 9.94-11.609 9.94H62.763c-5.794 0-27.831-31.789-35.368-31.789a12.75 12.75 0 0 0-6.308 1.278c-1.926.952-3.515 2.374-4.583 4.103l10.164 2.479 5.738 6.781 6.104-6.516" fill="none" stroke="#000" stroke-width="8" stroke-linecap="round" stroke-linejoin="round"/><path d="M86.742 157.384c-5.794 0-27.831-31.789-35.367-31.789H27.398m53.435 16.129a24.891 24.891 0 0 1-4.956 6.564" fill="none" stroke="#000" stroke-width="8" stroke-linecap="round" stroke-linejoin="round"/></svg>

<svg
    xmlns="http://www.w3.org/2000/svg"
    viewBox="0 0 192 192"
    id="vector">
    <path
        id="path"
        d="M 145.205 92.782 L 158.627 75.833 C 159.574 74.638 160.009 73.174 159.853 71.713 C 159.697 70.252 158.959 68.889 157.776 67.878 L 100.642 19.021 C 98.754 17.407 96.246 16.506 93.641 16.506 C 91.036 16.506 88.528 17.407 86.64 19.021 L 29.503 67.876 C 28.32 68.888 27.583 70.25 27.427 71.711 C 27.27 73.172 27.706 74.636 28.653 75.832 L 85.362 147.444 C 86.62 149.032 88.41 150.217 90.469 150.825 C 92.529 151.434 94.751 151.434 96.811 150.825 C 98.87 150.217 100.66 149.032 101.918 147.444 L 109.718 137.592"
        fill="none"
        stroke="#000000"
        stroke-width="8"
        stroke-linecap="round"
        stroke-linejoin="round"/>
    <path
        id="path_1"
        d="M 27.52 73.34 L 93.64 67.913 L 159.76 73.34 M 55.598 109.86 L 93.64 107.136 L 109.111 108.245"
        fill="none"
        stroke="#000000"
        stroke-width="8"
        stroke-linecap="round"
        stroke-linejoin="round"/>
    <path
        id="path_2"
        d="M 174.256 117.621 L 140.355 88.633 C 139.235 87.675 137.746 87.14 136.201 87.14 C 134.655 87.14 133.167 87.675 132.046 88.633 L 98.146 117.621 C 97.444 118.221 97.006 119.029 96.914 119.896 C 96.821 120.763 97.079 121.632 97.641 122.341 L 131.289 164.832 C 132.036 165.774 133.098 166.478 134.32 166.839 C 135.541 167.2 136.86 167.2 138.082 166.839 C 139.304 166.478 140.366 165.774 141.112 164.832 L 174.76 122.341 C 175.322 121.632 175.58 120.763 175.488 119.896 C 175.395 119.029 174.957 118.221 174.256 117.621 Z"
        fill="none"
        stroke="#000000"
        stroke-width="8"
        stroke-linecap="round"
        stroke-linejoin="round"/>
    <path
        id="path_3"
        d="M 96.971 120.863 L 136.2 117.642 L 175.434 120.863 M 113.629 142.531 L 136.2 140.917 L 158.772 142.531"
        fill="none"
        stroke="#000000"
        stroke-width="8"
        stroke-linecap="round"
        stroke-linejoin="round"/>
    <path
        id="path_4"
        d="M 141.112 164.832 C 135.061 170.351 127.275 174.074 118.805 175.5 L 119.757 169.177 L 113.63 163.963 C 118.405 163.207 123.033 161.834 127.371 159.886 M 101.918 147.444 C 100.017 149.844 94.395 157.384 90.309 157.384 L 62.763 157.384 C 56.969 157.384 34.932 125.595 27.395 125.595 C 25.201 125.478 23.014 125.921 21.087 126.873 C 19.161 127.825 17.572 129.247 16.504 130.976 L 26.668 133.455 L 32.406 140.236 L 38.51 133.72"
        fill="none"
        stroke="#000000"
        stroke-width="8"
        stroke-linecap="round"
        stroke-linejoin="round"/>
    <path
        id="path_5"
        d="M 86.742 157.384 C 80.948 157.384 58.911 125.595 51.375 125.595 L 27.398 125.595 M 80.833 141.724 C 79.583 144.137 77.909 146.353 75.877 148.288"
        fill="none"
        stroke="#000000"
        stroke-width="8"
        stroke-linecap="round"
        stroke-linejoin="round"/>
</svg>
